X:139
T:Three Little Drummers
C:Arr. J. Ciaglia
M:6/8
L:1/8
Q:1/8=400
K:D
%%staves [1 2]
P:As played by Ancient Mariners
V:1
%%MIDI channel 1
%%MIDI program 72
%%MIDI transpose 8
%%MIDI grace 1/8
%%MIDI ratio 3 1
|:(A//B//c//d//|e)AA eAA|(B/=c/B/A/B) GBd|eAA eAA|{e}def (g/a/g/f/g)|eAA eAA|(B/=c/B/A/B) G2d|
def gdB|{=c}BAA A2::z|eaa eaa|dgg dgg|eaa eaa|{e}def (g/a/g/f/g)|
eaa eaa|dgg d2-d|{e}def gdB|{c}BGG G2::z|eaa a^ga|bab ged({ef}|
e)aa a^ga|{e}def (g/a/g/f/g)|eaa {b}a^ga|bab ged|{e}def ~gdB|(B/=c/B/A/B) A2:|
%(A//B//c//d//|e)AA eAA|~BAB GBd|eAA eAA|{e}def ~gfg|eAA eAA|~BAB G2d|
%def gdB|{=c}BAA A2::z|eaa eaa|dgg dgg|eaa eaa|{e}def ~gfg|eaa eaa|
%dgg d2-d|{e}def gdB|{c}BGG G2::z|eaa a^ga|bab ged|{ef}eaa a^ga|
%{e}def ~gfg|eaa {b}a^ga|bab ged|{e}def ~gdB|~BAB A2:|
V:2
%%MIDI channel 1
%%MIDI program 72
%%MIDI transpose 8
%%MIDI grace 1/8
|:(A//B//c//d//|c)AA cAA|G2G G2B|cAA cAA|{c}B2A BcB|cAA cAA|G2-G G2=c|
B2A B2G|G2{E}E C2::z|{A}c2z {A}c2z|{G}B2z {G}B2z|{A}c2z {A}c2z|{=c}BcA BcA|
{A}c2z {A}c2z|{G}B2z {G}B2=c|{=c}B2A B2G|G2{E}D C2::z|c z B c z c|d z d B=cB|
c z B c z B|B=cA (B/c/B/A/B)|c z B c z c|d z d B>=cA|BcA B>AG|(G/A/G/F/G) C2:|
